!!!OTL: 196. Das Amorspiel im Kindermunde. / b.
!!!ARE: Europa, Mitteleuropa, Deutschland, Dresden
!!!SCT: K2196
!!!TXL: @@DE
!!!YEM: Copyright 1995, estate of Helmut Schaffrath.
**kern	**text
*clefG2	*
*M3/4	*
*k[b-]	*
*F:	*
{8f	A-
8a	-dam
=1	=1
8.cc	ging
16dd	und
8cc	woll-
8dd	-te
8cc	ſich
8dd	er-
=2	=2
4cc	-quicken,
4f}	.
{8f	ſei-
8a	-ne
=3	=3
8.cc	Schü-
16dd	-ler
8cc	konn-
8dd	-te
8cc	er
8dd	nicht
=4	=4
4cc	ſchicken.
4f;}	.
{8f	Er
8a	ging
=5	=5
4cc	wieder
4dd	.
8cc	auf
8dd	und
=6	=6
4cc	nie-
4f}	-der,
{8f	bis
8f	er
=7	=7
4g	ſein'
4g	Ge-
8.cc	-lieb-
16b-	-te
=8	=8
2a;}	fand.
=||	=||
{8f	Komm,
8a	du
=9	=9
4cc	al-
4cc	-ler-
8dd	-ſchön-
8cc	-ſtes
=10	=10
4a	Kindchen,
8f}	.
{8f	ʒeig'
8f	mir
8a	dein
=11	=11
4cc	ʒu-
4cc	-cker-
8dd	-ſü-
8cc	-ßes
=12	=12
4a	Mündchen.
4f}	.
{8f	Freu'
8a	dich,
=13	=13
4cc	freu'
4a	dich,
8ff	Lie-
8dd	-be,
=14	=14
4cc	freu'
8a}	dich
{8cc	ich,
8dd	hab'
8cc	ge-
=15	=15
4b-	-fun-
4g	-den
8cc	mei-
8cc	-nen
=16	=16
2a;}	Schatʒ!
==	==
!!!AGN: Kinder - Lied, Reigen, Tanz - Spiel, Brautwerbung
!!!ONB: ESAC (Essen Associative Code) Database: KINDER
!!!AMT: simple triple
!!!AIN: vox
!!!EED: Helmut Schaffrath
!!!EEV: 1.0
!!!GTL: Zweites Buch. Kinderspiel: 2. Reigen und Tanzspiele. / D. Ringelreigen mit Wahl (Brautwerbung).
!!@@COMMENT:"Am Rhein (Oberdiebach) 1896 von kleinen Mädchen geſpielt. Sie bilden lange Reihe. Eine geht hin und her ʒur Reihe und ʒurück. Alle ſingen. Die W "Komm, du" rc. 
!!ſingt die Eine und winkt einer andern Geſpielin, die ʒu ihr Wenn nach und nach alle ʒu der einen gekommen, dann ſingen ſie: "Die Reiſe rc. Alle faſſen ſich an den Händen und hüpfen."
!!@@END:
!!!URL-scan: https://archive.org/details/DeutschesKinderliedUndKinderspiel/page/477/mode/1up
!!!ENC: Anna Maria Matuszewska
!!!EEV: 2024/03/09
*-	*-
